dressly/src/assets/brand/logo-desktop.svg

<svg width="271" height="26" viewBox="80 0 271 26" fill="none" xmlns="http://www.w3.org/2000/svg">
<path fill-rule="evenodd" clip-rule="evenodd" d="M98.4957 7.50289C93.9266 12.0711 86.8032 12.5277 81.7234 8.87273C83.4062 4.27856 87.8176 1 92.9948 1H105L102.193 3.80662C101.878 4.12151 101.582 4.44854 101.307 4.7862C101.307 4.75494 101.307 4.72364 101.307 4.69232L98.4957 7.50289ZM88.7511 16.6798C85.7477 16.5435 83.032 15.3035 81 13.3558C81.136 18.0249 83.939 22.0251 87.9386 23.8859C87.4729 21.536 87.7046 19.0264 88.7511 16.6798ZM92.5175 24.9907C92.6758 24.9969 92.835 25 92.9948 25H105L102.193 22.1934C99.7492 19.7503 98.4815 16.5766 98.3896 13.3754C94.4891 15.9186 92.2566 20.3801 92.5175 24.9907Z" fill="#E09370"/>
<path d="M114.04 18.9C114.413 18.8867 114.7 18.8267 114.9 18.72C115.1 18.6 115.24 18.4 115.32 18.12C115.4 17.8267 115.44 17.4267 115.44 16.92V8.94C115.44 8.60667 115.447 8.28667 115.46 7.98C115.487 7.67333 115.507 7.43333 115.52 7.26C115.293 7.27333 115.033 7.28667 114.74 7.3C114.447 7.3 114.213 7.30667 114.04 7.32V6L119.48 5.98C120.76 5.98 121.887 6.16 122.86 6.52C123.847 6.86667 124.667 7.36 125.32 8C125.973 8.64 126.467 9.38 126.8 10.22C127.147 11.06 127.32 11.96 127.32 12.92C127.32 13.76 127.167 14.6 126.86 15.44C126.567 16.28 126.107 17.0467 125.48 17.74C124.867 18.42 124.067 18.9667 123.08 19.38C122.107 19.7933 120.947 20 119.6 20H114.04V18.9ZM117.96 17.02C117.96 17.38 117.953 17.7133 117.94 18.02C117.927 18.3267 117.907 18.5667 117.88 18.74C118.093 18.74 118.327 18.7467 118.58 18.76C118.833 18.76 119.08 18.7667 119.32 18.78C119.56 18.78 119.74 18.78 119.86 18.78C120.633 18.78 121.313 18.6267 121.9 18.32C122.487 18.0133 122.973 17.6 123.36 17.08C123.76 16.56 124.06 15.9667 124.26 15.3C124.46 14.62 124.56 13.9067 124.56 13.16C124.56 11.84 124.353 10.74 123.94 9.86C123.54 8.96667 122.96 8.29333 122.2 7.84C121.44 7.37333 120.5 7.13333 119.38 7.12C119.007 7.10667 118.713 7.16 118.5 7.28C118.287 7.4 118.14 7.6 118.06 7.88C117.993 8.16 117.96 8.55333 117.96 9.06V17.02ZM128.86 18.94C129.246 18.94 129.52 18.86 129.68 18.7C129.84 18.5267 129.94 18.2867 129.98 17.98C130.02 17.6733 130.04 17.3267 130.04 16.94V13.18C130.04 12.94 130.046 12.6867 130.06 12.42C130.073 12.1533 130.093 11.88 130.12 11.6C129.893 11.6133 129.646 11.6267 129.38 11.64C129.113 11.64 128.893 11.6467 128.72 11.66V10.38H129.46C129.993 10.38 130.44 10.32 130.8 10.2C131.16 10.0667 131.413 9.93333 131.56 9.8H132.4C132.426 9.96 132.446 10.2133 132.46 10.56C132.473 10.9067 132.48 11.2533 132.48 11.6C132.786 11.2 133.106 10.86 133.44 10.58C133.773 10.2867 134.113 10.0667 134.46 9.92C134.82 9.76 135.186 9.68 135.56 9.68C135.986 9.68 136.36 9.8 136.68 10.04C137.013 10.28 137.18 10.6667 137.18 11.2C137.18 11.3733 137.133 11.56 137.04 11.76C136.96 11.96 136.826 12.1267 136.64 12.26C136.466 12.3933 136.226 12.46 135.92 12.46C135.64 12.46 135.373 12.3733 135.12 12.2C134.88 12.0133 134.753 11.72 134.74 11.32C134.46 11.3067 134.166 11.4067 133.86 11.62C133.566 11.8333 133.3 12.0933 133.06 12.4C132.82 12.7067 132.633 13.02 132.5 13.34L132.52 17.14C132.52 17.3533 132.513 17.6133 132.5 17.92C132.486 18.2133 132.466 18.5 132.44 18.78C132.653 18.7533 132.88 18.74 133.12 18.74C133.36 18.7267 133.56 18.72 133.72 18.72V20H128.86V18.94ZM142.761 20.32C141.801 20.32 140.947 20.1067 140.201 19.68C139.454 19.24 138.874 18.6267 138.461 17.84C138.047 17.04 137.841 16.1 137.841 15.02C137.841 14.0867 138.047 13.2133 138.461 12.4C138.874 11.5867 139.454 10.9333 140.201 10.44C140.961 9.93333 141.841 9.68 142.841 9.68C143.401 9.68 143.941 9.76 144.461 9.92C144.981 10.08 145.447 10.3467 145.861 10.72C146.274 11.0933 146.601 11.5867 146.841 12.2C147.094 12.8133 147.214 13.56 147.201 14.44L140.481 14.56C140.481 15.3867 140.574 16.12 140.761 16.76C140.961 17.3867 141.281 17.8867 141.721 18.26C142.161 18.62 142.741 18.8 143.461 18.8C143.781 18.8 144.121 18.7467 144.481 18.64C144.854 18.52 145.221 18.3467 145.581 18.12C145.941 17.88 146.261 17.5867 146.541 17.24L147.301 17.94C146.861 18.58 146.374 19.0733 145.841 19.42C145.307 19.7667 144.774 20 144.241 20.12C143.707 20.2533 143.214 20.32 142.761 20.32ZM140.581 13.36H144.741C144.727 12.8267 144.647 12.38 144.501 12.02C144.367 11.6467 144.167 11.3667 143.901 11.18C143.634 10.98 143.307 10.88 142.921 10.88C142.267 10.88 141.741 11.1 141.341 11.54C140.954 11.9667 140.701 12.5733 140.581 13.36ZM153.202 20.32C152.589 20.32 152.015 20.24 151.482 20.08C150.949 19.92 150.522 19.7267 150.202 19.5L150.262 20.14H148.962L148.862 16.7H149.942C149.982 17.1533 150.142 17.5667 150.422 17.94C150.702 18.3 151.062 18.5867 151.502 18.8C151.955 19 152.455 19.1 153.002 19.1C153.269 19.1 153.522 19.06 153.762 18.98C154.015 18.9 154.222 18.7733 154.382 18.6C154.555 18.4133 154.642 18.18 154.642 17.9C154.642 17.6067 154.542 17.3667 154.342 17.18C154.155 16.9933 153.889 16.82 153.542 16.66C153.195 16.5 152.789 16.3333 152.322 16.16C151.909 16 151.495 15.8333 151.082 15.66C150.669 15.4867 150.289 15.28 149.942 15.04C149.595 14.7867 149.315 14.48 149.102 14.12C148.889 13.76 148.782 13.32 148.782 12.8C148.782 12.44 148.849 12.08 148.982 11.72C149.115 11.36 149.329 11.0267 149.622 10.72C149.915 10.4 150.289 10.1467 150.742 9.96C151.209 9.77333 151.775 9.68 152.442 9.68C152.802 9.68 153.209 9.74 153.662 9.86C154.115 9.96667 154.515 10.1533 154.862 10.42L154.842 9.78H156.142V13.3H155.062C154.995 12.8333 154.849 12.42 154.622 12.06C154.395 11.6867 154.095 11.3933 153.722 11.18C153.349 10.9667 152.902 10.86 152.382 10.86C151.955 10.86 151.595 10.9667 151.302 11.18C151.009 11.38 150.862 11.68 150.862 12.08C150.862 12.4133 150.975 12.6867 151.202 12.9C151.429 13.1133 151.735 13.2933 152.122 13.44C152.509 13.5867 152.929 13.7467 153.382 13.92C154.009 14.1333 154.575 14.3867 155.082 14.68C155.602 14.9733 156.015 15.3267 156.322 15.74C156.629 16.1533 156.782 16.6667 156.782 17.28C156.782 17.9733 156.609 18.5467 156.262 19C155.915 19.44 155.469 19.7733 154.922 20C154.375 20.2133 153.802 20.32 153.202 20.32ZM162.753 20.32C162.139 20.32 161.566 20.24 161.033 20.08C160.499 19.92 160.073 19.7267 159.753 19.5L159.813 20.14H158.513L158.413 16.7H159.493C159.533 17.1533 159.693 17.5667 159.973 17.94C160.253 18.3 160.613 18.5867 161.053 18.8C161.506 19 162.006 19.1 162.553 19.1C162.819 19.1 163.073 19.06 163.313 18.98C163.566 18.9 163.773 18.7733 163.933 18.6C164.106 18.4133 164.193 18.18 164.193 17.9C164.193 17.6067 164.093 17.3667 163.893 17.18C163.706 16.9933 163.439 16.82 163.093 16.66C162.746 16.5 162.339 16.3333 161.873 16.16C161.459 16 161.046 15.8333 160.633 15.66C160.219 15.4867 159.839 15.28 159.493 15.04C159.146 14.7867 158.866 14.48 158.653 14.12C158.439 13.76 158.333 13.32 158.333 12.8C158.333 12.44 158.399 12.08 158.533 11.72C158.666 11.36 158.879 11.0267 159.173 10.72C159.466 10.4 159.839 10.1467 160.293 9.96C160.759 9.77333 161.326 9.68 161.993 9.68C162.353 9.68 162.759 9.74 163.213 9.86C163.666 9.96667 164.066 10.1533 164.413 10.42L164.393 9.78H165.693V13.3H164.613C164.546 12.8333 164.399 12.42 164.173 12.06C163.946 11.6867 163.646 11.3933 163.273 11.18C162.899 10.9667 162.453 10.86 161.933 10.86C161.506 10.86 161.146 10.9667 160.853 11.18C160.559 11.38 160.413 11.68 160.413 12.08C160.413 12.4133 160.526 12.6867 160.753 12.9C160.979 13.1133 161.286 13.2933 161.673 13.44C162.059 13.5867 162.479 13.7467 162.933 13.92C163.559 14.1333 164.126 14.3867 164.633 14.68C165.153 14.9733 165.566 15.3267 165.873 15.74C166.179 16.1533 166.333 16.6667 166.333 17.28C166.333 17.9733 166.159 18.5467 165.813 19C165.466 19.44 165.019 19.7733 164.473 20C163.926 20.2133 163.353 20.32 162.753 20.32ZM168.063 20V18.9C168.437 18.8867 168.723 18.8267 168.923 18.72C169.123 18.6 169.263 18.4 169.343 18.12C169.423 17.8267 169.463 17.4267 169.463 16.92V8.94C169.463 8.60667 169.47 8.28667 169.483 7.98C169.51 7.67333 169.53 7.43333 169.543 7.26C169.317 7.27333 169.057 7.28667 168.763 7.3C168.47 7.3 168.237 7.30667 168.063 7.32V6H173.383V7.1C173.023 7.11333 172.737 7.18 172.523 7.3C172.323 7.40667 172.183 7.6 172.103 7.88C172.023 8.16 171.983 8.56 171.983 9.08V17.04C171.983 17.4 171.977 17.7333 171.963 18.04C171.95 18.3333 171.93 18.5667 171.903 18.74L174.943 18.72C175.743 18.7067 176.363 18.4333 176.803 17.9C177.243 17.3667 177.463 16.54 177.463 15.42H178.583L178.463 20H168.063ZM180.936 25.42C180.456 25.42 180.05 25.2867 179.716 25.02C179.383 24.7533 179.216 24.3867 179.216 23.92C179.216 23.6 179.323 23.3133 179.536 23.06C179.75 22.82 180.023 22.6933 180.356 22.68C180.65 22.6667 180.883 22.76 181.056 22.96C181.243 23.1733 181.336 23.4267 181.336 23.72C181.336 23.76 181.336 23.8 181.336 23.84C181.336 23.8933 181.33 23.9467 181.316 24C181.343 24 181.39 24 181.456 24C181.59 23.9733 181.73 23.8733 181.876 23.7C182.036 23.54 182.183 23.32 182.316 23.04C182.476 22.7333 182.643 22.3533 182.816 21.9C182.99 21.46 183.156 20.9667 183.316 20.42L180.176 13.96C179.816 13.2133 179.57 12.64 179.436 12.24C179.316 11.84 179.23 11.5067 179.176 11.24L178.256 11.28V10H182.956V11.06H182.916C182.41 11.1 182.13 11.2933 182.076 11.64C182.023 11.9733 182.11 12.3867 182.336 12.88L184.436 17.54C184.623 17.02 184.83 16.38 185.056 15.62C185.296 14.86 185.563 14.06 185.856 13.22C185.923 13.0067 186.003 12.7733 186.096 12.52C186.203 12.2533 186.31 12 186.416 11.76C186.523 11.52 186.63 11.34 186.736 11.22L185.516 11.28V10H188.936V11.06C188.496 11.18 188.143 11.4533 187.876 11.88C187.623 12.2933 187.383 12.8133 187.156 13.44L184.656 20.52C184.27 21.6133 183.91 22.52 183.576 23.24C183.243 23.9733 182.87 24.52 182.456 24.88C182.056 25.24 181.55 25.42 180.936 25.42Z" fill="#12070B"/>
</svg>

<svg xmlns="http://www.w3.org/2000/svg" width="271" height="26" fill="none" viewBox="80 0 271 26"><path fill="#E09370" fill-rule="evenodd" d="M98.496 7.503c-4.57 4.568-11.693 5.025-16.773 1.37C83.406 4.279 87.818 1 92.995 1H105l-2.807 2.807q-.473.473-.886.98v-.095zM88.75 16.68A11.96 11.96 0 0 1 81 13.356c.136 4.669 2.939 8.67 6.939 10.53-.466-2.35-.234-4.86.812-7.206m3.766 8.31q.238.01.478.01H105l-2.807-2.807a12.96 12.96 0 0 1-3.803-8.818 13.02 13.02 0 0 0-5.873 11.616" clip-rule="evenodd"/><path fill="#12070B" d="M114.04 18.9q.56-.02.86-.18.3-.18.42-.6.12-.44.12-1.2V8.94q0-.5.02-.96.04-.46.06-.72-.34.02-.78.04-.44 0-.7.02V6l5.44-.02q1.92 0 3.38.54 1.48.52 2.46 1.48a6.4 6.4 0 0 1 1.48 2.22q.52 1.26.52 2.7 0 1.26-.46 2.52a6.7 6.7 0 0 1-1.38 2.3q-.92 1.02-2.4 1.64-1.46.62-3.48.62h-5.56zm3.92-1.88q0 .54-.02 1a7 7 0 0 1-.06.72q.32 0 .7.02.38 0 .74.02h.54q1.16 0 2.04-.46a4.24 4.24 0 0 0 1.46-1.24q.6-.78.9-1.78.3-1.02.3-2.14 0-1.98-.62-3.3-.6-1.34-1.74-2.02-1.14-.7-2.82-.72-.56-.02-.88.16t-.44.6q-.1.42-.1 1.18zm10.9 1.92q.58 0 .82-.24.24-.26.3-.72t.06-1.04v-3.76q0-.36.02-.76t.06-.82q-.34.02-.74.04-.4 0-.66.02v-1.28h.74q.8 0 1.34-.18.54-.2.76-.4h.84q.039.24.06.76t.02 1.04q.459-.6.96-1.02a3.8 3.8 0 0 1 1.02-.66q.54-.24 1.1-.24.64 0 1.12.36.5.36.5 1.16 0 .26-.14.56-.12.3-.4.5-.261.2-.72.2-.42 0-.8-.26-.36-.28-.38-.88-.42-.02-.88.3-.44.32-.8.78t-.56.94l.02 3.8a19 19 0 0 1-.08 1.64q.32-.04.68-.04.36-.02.6-.02V20h-4.86zm13.901 1.38q-1.44 0-2.56-.64a4.54 4.54 0 0 1-1.74-1.84q-.62-1.2-.62-2.82 0-1.4.62-2.62a5.04 5.04 0 0 1 1.74-1.96q1.14-.76 2.64-.76.84 0 1.62.24t1.4.8.98 1.48q.38.92.36 2.24l-6.72.12q0 1.24.28 2.2.3.94.96 1.5.66.54 1.74.54.48 0 1.02-.16.56-.18 1.1-.52.54-.36.96-.88l.76.7q-.66.96-1.46 1.48a4.9 4.9 0 0 1-1.6.7 6 6 0 0 1-1.48.2m-2.18-6.96h4.16q-.021-.8-.24-1.34-.201-.56-.6-.84-.4-.3-.98-.3-.98 0-1.58.66-.58.64-.76 1.82m12.621 6.96q-.92 0-1.72-.24t-1.28-.58l.06.64h-1.3l-.1-3.44h1.08q.06.68.48 1.24.42.54 1.08.86.68.3 1.5.3.4 0 .76-.12.38-.12.62-.38a1 1 0 0 0 .26-.7.94.94 0 0 0-.3-.72q-.28-.28-.8-.52t-1.22-.5q-.62-.24-1.24-.5a6.2 6.2 0 0 1-1.14-.62 3.1 3.1 0 0 1-.84-.92q-.32-.54-.32-1.32 0-.54.2-1.08t.64-1q.44-.48 1.12-.76.7-.28 1.7-.28.54 0 1.22.18.68.16 1.2.56l-.02-.64h1.3v3.52h-1.08a3.1 3.1 0 0 0-.44-1.24 2.5 2.5 0 0 0-.9-.88q-.56-.32-1.34-.32-.64 0-1.08.32-.44.3-.44.9 0 .5.34.82t.92.54l1.26.48a9.5 9.5 0 0 1 1.7.76q.78.44 1.24 1.06t.46 1.54q0 1.04-.52 1.72a3.26 3.26 0 0 1-1.34 1q-.82.32-1.72.32m9.551 0q-.92 0-1.72-.24t-1.28-.58l.06.64h-1.3l-.1-3.44h1.08q.06.68.48 1.24.42.54 1.08.86.68.3 1.5.3.4 0 .76-.12.38-.12.62-.38a1 1 0 0 0 .26-.7.94.94 0 0 0-.3-.72q-.28-.28-.8-.52t-1.22-.5q-.62-.24-1.24-.5a6.2 6.2 0 0 1-1.14-.62 3.1 3.1 0 0 1-.84-.92q-.32-.54-.32-1.32 0-.54.2-1.08t.64-1q.44-.48 1.12-.76.7-.28 1.7-.28.54 0 1.22.18.68.16 1.2.56l-.02-.64h1.3v3.52h-1.08a3.1 3.1 0 0 0-.44-1.24 2.5 2.5 0 0 0-.9-.88q-.56-.32-1.34-.32-.64 0-1.08.32-.44.3-.44.9 0 .5.34.82t.92.54l1.26.48a9.5 9.5 0 0 1 1.7.76q.78.44 1.24 1.06t.46 1.54q0 1.04-.52 1.72-.52.66-1.34 1-.82.32-1.72.32m5.31-.32v-1.1q.56-.02.86-.18.3-.18.42-.6.12-.44.12-1.2V8.94q0-.5.02-.96.04-.46.06-.72-.339.02-.78.04a10 10 0 0 0-.7.02V6h5.32v1.1q-.54.02-.86.2-.3.16-.42.58t-.12 1.2v7.96q0 .54-.02 1a7 7 0 0 1-.06.7l3.04-.02q1.2-.02 1.86-.82t.66-2.48h1.12l-.12 4.58zm12.873 5.42q-.72 0-1.22-.4t-.5-1.1q0-.48.32-.86.32-.36.82-.38.44-.02.7.28.28.32.28.76v.12a.6.6 0 0 1-.02.16h.14q.201-.04.42-.3.24-.24.44-.66.24-.46.5-1.14.26-.66.5-1.48l-3.14-6.46q-.54-1.12-.74-1.72-.18-.6-.26-1l-.92.04V10h4.7v1.06h-.04q-.759.06-.84.58-.08.5.26 1.24l2.1 4.66q.28-.78.62-1.92.36-1.14.8-2.4.1-.32.24-.7.16-.4.32-.76t.32-.54l-1.22.06V10h3.42v1.06q-.66.18-1.06.82-.38.62-.72 1.56l-2.5 7.08a32 32 0 0 1-1.08 2.72q-.5 1.1-1.12 1.64-.6.54-1.52.54"/></svg>
